Media/telegram.svg

<svg width="48" height="47" viewBox="0 0 48 47" fill="none" xmlns="http://www.w3.org/2000/svg">
<g clip-path="url(#clip0_446:41)">
<path d="M47.4689 23.5C47.4689 29.7326 45.0056 35.7099 40.6208 40.117C36.236 44.5241 30.289 47 24.088 47C17.887 47 11.9399 44.5241 7.55515 40.117C3.17037 35.7099 0.707031 29.7326 0.707031 23.5C0.707031 17.2674 3.17037 11.2901 7.55515 6.88299C11.9399 2.47589 17.887 0 24.088 0C30.289 0 36.236 2.47589 40.6208 6.88299C45.0056 11.2901 47.4689 17.2674 47.4689 23.5ZM24.9268 17.3489C22.653 18.3006 18.1054 20.2687 11.2898 23.2533C10.1851 23.6939 9.60348 24.1286 9.55087 24.5516C9.46319 25.2654 10.3546 25.5474 11.5675 25.9323L12.0789 26.0938C13.2714 26.4845 14.8788 26.9398 15.7117 26.9574C16.4716 26.9751 17.3163 26.6637 18.2486 26.0174C24.617 21.6964 27.9049 19.5138 28.1095 19.4668C28.2556 19.4316 28.4602 19.3904 28.5946 19.5138C28.732 19.6343 28.7174 19.8663 28.7028 19.928C28.6151 20.3069 25.1167 23.5734 23.3076 25.2654C22.7436 25.7942 22.3432 26.1673 22.2613 26.2524C22.0811 26.4375 21.898 26.6197 21.7119 26.7988C20.6013 27.8739 19.7713 28.6788 21.7557 29.9948C22.7114 30.6293 23.4771 31.1492 24.2399 31.6721C25.07 32.242 25.9 32.8089 26.9755 33.5198C27.2473 33.6961 27.5103 33.887 27.7646 34.0691C28.732 34.7624 29.6059 35.3851 30.6785 35.2853C31.3039 35.2265 31.9498 34.639 32.2771 32.8765C33.0516 28.7141 34.5743 19.6989 34.925 15.9829C34.9464 15.674 34.9337 15.3637 34.887 15.0576C34.8595 14.8106 34.7406 14.5831 34.5539 14.4202C34.2879 14.2357 33.9709 14.1401 33.6478 14.147C32.7711 14.1617 31.4179 14.6346 24.9268 17.3489Z" fill="white"/>
</g>
<defs>
<clipPath id="clip0_446:41">
<rect width="46.7619" height="47" fill="white" transform="translate(0.707031)"/>
</clipPath>
</defs>
</svg>

<svg width="48" height="47" fill="none" xmlns="http://www.w3.org/2000/svg"><g clip-path="url(#a)"><path d="M47.469 23.5a23.56 23.56 0 0 1-6.848 16.617A23.321 23.321 0 0 1 24.088 47a23.321 23.321 0 0 1-16.533-6.883A23.56 23.56 0 0 1 .707 23.5 23.56 23.56 0 0 1 7.555 6.883 23.321 23.321 0 0 1 24.088 0a23.321 23.321 0 0 1 16.533 6.883A23.56 23.56 0 0 1 47.469 23.5Zm-22.542-6.151c-2.274.952-6.822 2.92-13.637 5.904-1.105.44-1.687.876-1.74 1.299-.087.713.805.995 2.018 1.38l.51.162c1.193.39 2.8.846 3.634.863.76.018 1.604-.293 2.537-.94 6.368-4.32 9.656-6.503 9.86-6.55.147-.035.351-.077.486.047.137.12.122.352.108.414-.088.379-3.586 3.645-5.395 5.337-.564.53-.965.902-1.047.987-.18.186-.363.368-.55.547-1.11 1.075-1.94 1.88.045 3.196.955.634 1.721 1.154 2.484 1.677.83.57 1.66 1.137 2.736 1.848.271.176.534.367.789.55.967.692 1.84 1.315 2.913 1.215.626-.058 1.272-.646 1.6-2.408.774-4.163 2.296-13.178 2.647-16.894.021-.309.009-.62-.038-.925a.991.991 0 0 0-.333-.638 1.532 1.532 0 0 0-.906-.273c-.877.015-2.23.488-8.721 3.202Z" fill="#fff"/></g><defs><clipPath id="a"><path fill="#fff" transform="translate(.707)" d="M0 0h46.762v47H0z"/></clipPath></defs></svg>
